azure-patterns/svg-devops-connected.svg

<svg xmlns="http://www.w3.org/2000/svg" viewBox="0 0 80 80">
                                
                            
    <rect width="80" height="80" fill="black" fill-opacity="0"></rect>
    <circle cx="40" cy="40" r="40" fill="#00B294" fill-opacity="0.05"></circle>
    <path d="M54 34.375C54 35.0547 53.8828 35.6992 53.6484 36.3086C53.4258 36.918 53.1094 37.4688 52.6992 37.9609C52.2891 38.4531 51.8027 38.8691 51.2402 39.209C50.6777 39.5488 50.0625 39.7773 49.3945 39.8945C49.2656 40.5625 49.0312 41.1777 48.6914 41.7402C48.3633 42.3027 47.9531 42.7891 47.4609 43.1992C46.9688 43.6094 46.418 43.9316 45.8086 44.166C45.1992 44.3887 44.5547 44.5 43.875 44.5H37.125C36.75 44.5 36.3926 44.5586 36.0527 44.6758C35.7129 44.793 35.4023 44.957 35.1211 45.168C34.8398 45.3789 34.5938 45.6367 34.3828 45.9414C34.1719 46.2344 34.0137 46.5566 33.9082 46.9082C34.541 47.0605 35.1211 47.3125 35.6484 47.6641C36.1875 48.0039 36.6445 48.4141 37.0195 48.8945C37.4062 49.375 37.7051 49.9141 37.916 50.5117C38.1387 51.1094 38.25 51.7305 38.25 52.375C38.25 53.1484 38.0977 53.8809 37.793 54.5723C37.5 55.252 37.0957 55.8496 36.5801 56.3652C36.0762 56.8691 35.4844 57.2676 34.8047 57.5605C34.125 57.8535 33.3984 58 32.625 58C31.8516 58 31.1191 57.8535 30.4277 57.5605C29.748 57.2676 29.1504 56.8691 28.6348 56.3652C28.1309 55.8496 27.7324 55.252 27.4395 54.5723C27.1465 53.8809 27 53.1484 27 52.375C27 51.707 27.1113 51.0684 27.334 50.459C27.5566 49.8496 27.8672 49.3047 28.2656 48.8242C28.6641 48.332 29.1387 47.916 29.6895 47.5762C30.2402 47.2363 30.8438 47.002 31.5 46.873V33.127C30.8438 32.998 30.2402 32.7637 29.6895 32.4238C29.1387 32.084 28.6641 31.6738 28.2656 31.1934C27.8672 30.7012 27.5566 30.1504 27.334 29.541C27.1113 28.9316 27 28.293 27 27.625C27 26.8516 27.1465 26.125 27.4395 25.4453C27.7324 24.7656 28.1309 24.1738 28.6348 23.6699C29.1504 23.1543 29.748 22.75 30.4277 22.457C31.1191 22.1523 31.8516 22 32.625 22C33.3984 22 34.125 22.1523 34.8047 22.457C35.4844 22.75 36.0762 23.1543 36.5801 23.6699C37.0957 24.1738 37.5 24.7656 37.793 25.4453C38.0977 26.125 38.25 26.8516 38.25 27.625C38.25 28.293 38.1387 28.9316 37.916 29.541C37.6934 30.1504 37.3828 30.7012 36.9844 31.1934C36.5859 31.6738 36.1113 32.084 35.5605 32.4238C35.0098 32.7637 34.4062 32.998 33.75 33.127V43.4102C34.2422 43.0352 34.7754 42.748 35.3496 42.5488C35.9238 42.3496 36.5156 42.25 37.125 42.25H43.875C44.25 42.25 44.6074 42.1914 44.9473 42.0742C45.2871 41.957 45.5977 41.793 45.8789 41.582C46.1602 41.3711 46.4062 41.1191 46.6172 40.8262C46.8281 40.5215 46.9863 40.1934 47.0918 39.8418C46.459 39.6895 45.873 39.4434 45.334 39.1035C44.8066 38.7637 44.3496 38.3535 43.9629 37.873C43.5879 37.3809 43.2891 36.8418 43.0664 36.2559C42.8555 35.6582 42.75 35.0312 42.75 34.375C42.75 33.6016 42.8965 32.875 43.1895 32.1953C43.4824 31.5156 43.8809 30.9238 44.3848 30.4199C44.9004 29.9043 45.498 29.5 46.1777 29.207C46.8691 28.9023 47.6016 28.75 48.375 28.75C49.1484 28.75 49.875 28.9023 50.5547 29.207C51.2344 29.5 51.8262 29.9043 52.3301 30.4199C52.8457 30.9238 53.25 31.5156 53.543 32.1953C53.8477 32.875 54 33.6016 54 34.375ZM29.25 27.625C29.25 28.0938 29.3379 28.5332 29.5137 28.9434C29.6895 29.3535 29.9297 29.7109 30.2344 30.0156C30.5391 30.3203 30.8965 30.5605 31.3066 30.7363C31.7168 30.9121 32.1562 31 32.625 31C33.0938 31 33.5332 30.9121 33.9434 30.7363C34.3535 30.5605 34.7109 30.3203 35.0156 30.0156C35.3203 29.7109 35.5605 29.3535 35.7363 28.9434C35.9121 28.5332 36 28.0938 36 27.625C36 27.1562 35.9121 26.7168 35.7363 26.3066C35.5605 25.8965 35.3203 25.5391 35.0156 25.2344C34.7109 24.9297 34.3535 24.6895 33.9434 24.5137C33.5332 24.3379 33.0938 24.25 32.625 24.25C32.1562 24.25 31.7168 24.3379 31.3066 24.5137C30.8965 24.6895 30.5391 24.9297 30.2344 25.2344C29.9297 25.5391 29.6895 25.8965 29.5137 26.3066C29.3379 26.7168 29.25 27.1562 29.25 27.625ZM36 52.375C36 51.9062 35.9121 51.4668 35.7363 51.0566C35.5605 50.6465 35.3203 50.2891 35.0156 49.9844C34.7109 49.6797 34.3535 49.4395 33.9434 49.2637C33.5332 49.0879 33.0938 49 32.625 49C32.1562 49 31.7168 49.0879 31.3066 49.2637C30.8965 49.4395 30.5391 49.6797 30.2344 49.9844C29.9297 50.2891 29.6895 50.6465 29.5137 51.0566C29.3379 51.4668 29.25 51.9062 29.25 52.375C29.25 52.8438 29.3379 53.2832 29.5137 53.6934C29.6895 54.1035 29.9297 54.4609 30.2344 54.7656C30.5391 55.0703 30.8965 55.3105 31.3066 55.4863C31.7168 55.6621 32.1562 55.75 32.625 55.75C33.0938 55.75 33.5332 55.6621 33.9434 55.4863C34.3535 55.3105 34.7109 55.0703 35.0156 54.7656C35.3203 54.4609 35.5605 54.1035 35.7363 53.6934C35.9121 53.2832 36 52.8438 36 52.375ZM48.375 37.75C48.8438 37.75 49.2832 37.6621 49.6934 37.4863C50.1035 37.3105 50.4609 37.0703 50.7656 36.7656C51.0703 36.4609 51.3105 36.1035 51.4863 35.6934C51.6621 35.2832 51.75 34.8438 51.75 34.375C51.75 33.9062 51.6621 33.4668 51.4863 33.0566C51.3105 32.6465 51.0703 32.2891 50.7656 31.9844C50.4609 31.6797 50.1035 31.4395 49.6934 31.2637C49.2832 31.0879 48.8438 31 48.375 31C47.9062 31 47.4668 31.0879 47.0566 31.2637C46.6465 31.4395 46.2891 31.6797 45.9844 31.9844C45.6797 32.2891 45.4395 32.6465 45.2637 33.0566C45.0879 33.4668 45 33.9062 45 34.375C45 34.8438 45.0879 35.2832 45.2637 35.6934C45.4395 36.1035 45.6797 36.4609 45.9844 36.7656C46.2891 37.0703 46.6465 37.3105 47.0566 37.4863C47.4668 37.6621 47.9062 37.75 48.375 37.75Z" fill="#00B294"></path>
</svg>

<svg xmlns="http://www.w3.org/2000/svg" viewBox="0 0 80 80"><path fill="none" d="M0 0h80v80H0z"/><circle cx="40" cy="40" r="40" fill="#00B294" fill-opacity=".05"/><path d="M54 34.375c0 .68-.117 1.324-.352 1.934a5.516 5.516 0 0 1-.949 1.652 5.76 5.76 0 0 1-1.459 1.248 5.311 5.311 0 0 1-1.846.685 5.585 5.585 0 0 1-.703 1.846 5.47 5.47 0 0 1-1.23 1.46 5.83 5.83 0 0 1-1.652.966 5.589 5.589 0 0 1-1.934.334h-6.75c-.375 0-.732.059-1.072.176a3.317 3.317 0 0 0-1.67 1.266c-.211.292-.37.615-.475.966a5.379 5.379 0 0 1 1.74.756c.54.34.996.75 1.371 1.23.387.481.686 1.02.897 1.618.223.597.334 1.218.334 1.863 0 .773-.152 1.506-.457 2.197a5.64 5.64 0 0 1-2.988 2.988c-.68.293-1.407.44-2.18.44a5.573 5.573 0 0 1-2.197-.44 5.855 5.855 0 0 1-1.793-1.195 5.855 5.855 0 0 1-1.196-1.793A5.573 5.573 0 0 1 27 52.375c0-.668.111-1.307.334-1.916a5.49 5.49 0 0 1 .932-1.635 5.598 5.598 0 0 1 1.424-1.248 5.4 5.4 0 0 1 1.81-.703V33.127a5.4 5.4 0 0 1-1.81-.703 5.77 5.77 0 0 1-1.424-1.23 5.732 5.732 0 0 1-.932-1.653A5.538 5.538 0 0 1 27 27.625c0-.773.146-1.5.44-2.18a5.64 5.64 0 0 1 2.988-2.988A5.389 5.389 0 0 1 32.625 22c.773 0 1.5.152 2.18.457.68.293 1.271.697 1.775 1.213.516.504.92 1.096 1.213 1.775.305.68.457 1.407.457 2.18 0 .668-.111 1.307-.334 1.916a5.732 5.732 0 0 1-.932 1.652 5.77 5.77 0 0 1-1.424 1.23 5.4 5.4 0 0 1-1.81.704V43.41a5.717 5.717 0 0 1 1.6-.861 5.38 5.38 0 0 1 1.775-.299h6.75c.375 0 .732-.059 1.072-.176.34-.117.65-.281.932-.492.281-.21.527-.463.738-.756.211-.304.37-.633.475-.984a5.829 5.829 0 0 1-1.758-.739 5.731 5.731 0 0 1-1.371-1.23 6.411 6.411 0 0 1-.897-1.617 5.611 5.611 0 0 1-.316-1.881c0-.773.147-1.5.44-2.18a5.64 5.64 0 0 1 2.988-2.988 5.389 5.389 0 0 1 2.197-.457c.773 0 1.5.152 2.18.457.68.293 1.271.697 1.775 1.213.516.504.92 1.096 1.213 1.775.305.68.457 1.407.457 2.18zm-24.75-6.75c0 .469.088.908.264 1.318.175.41.416.768.72 1.073.305.304.662.545 1.073.72.41.176.85.264 1.318.264.469 0 .908-.088 1.318-.264.41-.175.768-.416 1.073-.72.304-.305.544-.662.72-1.073.176-.41.264-.85.264-1.318 0-.469-.088-.908-.264-1.318a3.387 3.387 0 0 0-.72-1.073 3.387 3.387 0 0 0-1.073-.72 3.311 3.311 0 0 0-1.318-.264c-.469 0-.908.088-1.318.264-.41.175-.768.416-1.073.72a3.387 3.387 0 0 0-.72 1.073c-.176.41-.264.85-.264 1.318zM36 52.375c0-.469-.088-.908-.264-1.318a3.387 3.387 0 0 0-.72-1.073 3.387 3.387 0 0 0-1.073-.72A3.311 3.311 0 0 0 32.625 49c-.469 0-.908.088-1.318.264-.41.175-.768.416-1.073.72a3.387 3.387 0 0 0-.72 1.073c-.176.41-.264.85-.264 1.318 0 .469.088.908.264 1.318.175.41.416.768.72 1.073.305.304.662.544 1.073.72.41.176.85.264 1.318.264.469 0 .908-.088 1.318-.264.41-.175.768-.416 1.073-.72.304-.305.544-.663.72-1.073.176-.41.264-.85.264-1.318zM48.375 37.75c.469 0 .908-.088 1.318-.264.41-.175.768-.416 1.073-.72.304-.305.544-.663.72-1.073.176-.41.264-.85.264-1.318 0-.469-.088-.908-.264-1.318a3.387 3.387 0 0 0-.72-1.073 3.387 3.387 0 0 0-1.073-.72A3.311 3.311 0 0 0 48.375 31c-.469 0-.908.088-1.318.264-.41.175-.768.416-1.073.72a3.387 3.387 0 0 0-.72 1.073c-.176.41-.264.85-.264 1.318 0 .469.088.908.264 1.318.175.41.416.768.72 1.073.305.304.663.544 1.073.72.41.176.85.264 1.318.264z" fill="#00B294"/></svg>
